assets/fc/fc-camcorder-pro.svg

<svg xmlns="http://www.w3.org/2000/svg" width="100%" height="100%" viewBox="0 0 48 48"><path fill="#37474F" d="M27 8h10v4H27z"/><path fill="#607D8B" d="M27 8h-9.7c-1.5 0-2.8.8-3.5 2.1l-3.3 6L14 18l3.3-6H27v7.2h4V12c0-2.2-1.8-4-4-4z"/><path fill="#607D8B" d="M30 40H6c-2.2 0-4-1.8-4-4V20c0-2.2 1.8-4 4-4h24c2.2 0 4 1.8 4 4v16c0 2.2-1.8 4-4 4zM38 35l5 5h3V18h-3l-5 5v12z"/><path fill="#546E7A" d="M22 35H8c-1.1 0-2-.9-2-2V23c0-1.1.9-2 2-2h14c1.1 0 2 .9 2 2v10c0 1.1-.9 2-2 2z"/><path fill="#455A64" d="M34 23h4v12h-4z"/><path fill="#263238" d="M41 13h-4c-.6 0-1-.4-1-1V8c0-.6.4-1 1-1h4c1.7 0 3 1.3 3 3s-1.3 3-3 3z"/><path fill="#03A9F4" d="M8 23h14v10H8z"/><path fill="#4FC3F7" d="M13.5 25.5L9 32h9z"/><g fill="#B3E5FC"><circle cx="19.5" cy="25.5" r="1.5"/><path d="M17.5 27.6L14 32h7z"/></g></svg>

<svg xmlns="http://www.w3.org/2000/svg" width="100%" height="100%" viewBox="0 0 48 48"><path fill="#37474F" d="M27 8H37V12H27z"/><path fill="#607D8B" d="M27,8h-9.7c-1.5,0-2.8,0.8-3.5,2.1l-3.3,6L14,18l3.3-6H27v7.2h4V12C31,9.8,29.2,8,27,8z"/><path fill="#607D8B" d="M30 40H6c-2.2 0-4-1.8-4-4V20c0-2.2 1.8-4 4-4h24c2.2 0 4 1.8 4 4v16C34 38.2 32.2 40 30 40zM38 35l5 5h3V18h-3l-5 5V35z"/><path fill="#546E7A" d="M22,35H8c-1.1,0-2-0.9-2-2V23c0-1.1,0.9-2,2-2h14c1.1,0,2,0.9,2,2v10C24,34.1,23.1,35,22,35z"/><path fill="#455A64" d="M34 23H38V35H34z"/><path fill="#263238" d="M41,13h-4c-0.6,0-1-0.4-1-1V8c0-0.6,0.4-1,1-1h4c1.7,0,3,1.3,3,3v0C44,11.7,42.7,13,41,13z"/><path fill="#03A9F4" d="M8 23H22V33H8z"/><path fill="#4FC3F7" d="M13.5 25.5L9 32 18 32z"/><g fill="#B3E5FC"><circle cx="19.5" cy="25.5" r="1.5"/><path d="M17.5 27.6L14 32 21 32z"/></g></svg>
